X:52
T:Merry Blacksmith
R:reel
M:4/4
L:1/8
K:Dmaj
|: d2dA BAFA | ABdA BAFA | ABde fded | Beed egfe|
d2dA BAFA | ABdA BAFA | ABde fdec |1 dBAF D3 z :|2 dBAF D2fg ||
|: a2ag f2fe | d2dA BAFA | ABde fded | Beed egfg|
a2ag f2fe | d2dA BAFA | ABde fdec |1 dBAF D2fg :|2 dBAF D3 z ||
